portfolio-htmlcssjs/img/img_service3.svg

<svg fill="none" height="61" viewBox="0 0 76 61" width="76" xmlns="http://www.w3.org/2000/svg" xmlns:xlink="http://www.w3.org/1999/xlink"><clipPath id="a"><path d="m0 0h76v60.8h-76z"/></clipPath><g clip-path="url(#a)"><path d="m10.4732 36.7056c1.1637-2.1731.8075-4.845-.89064-6.6262-2.52937-2.66-3.88312-5.8544-3.88312-9.1794 0-7.5406 7.57626-15.2 18.99996-15.2 11.4238 0 19 7.6594 19 15.2s-7.5762 15.2-19 15.2c-1.5556 0-3.0637-.1544-4.4887-.4275-1.235-.2375-2.5175-.0713-3.6456.4987-.4869.2494-.9857.4869-1.4963.7126-1.9.855-3.9069 1.6031-5.92561 2.1375.3325-.5463.64125-1.0807.93811-1.6151.1306-.2256.2613-.4631.38-.7006zm-10.47376276-15.8056c0 4.9638 2.04250276 9.5119 5.45062276 13.0981-.10687.2019-.22562.4156-.3325.6056-1.22312 2.185-2.64812 4.3344-4.346248 6.1869-.7837498.8313-.985625 2.0425-.54625 3.0756.463125 1.0569 1.484378 1.7338 2.624378 1.7338 5.10625 0 10.27186-1.5794 14.57066-3.5269.57-.2612 1.14-.5344 1.6862-.8075 1.7931.3563 3.6694.5344 5.5931.5344 13.6444 0 24.7-9.3575 24.7-20.9s-11.0556-20.9-24.7-20.9c-13.6443 0-24.69996276 9.3575-24.69996276 20.9zm51.29996276 36.1c1.9238 0 3.7882-.19 5.5932-.5344.5462.2732 1.1162.5463 1.6862.8075 4.2988 1.9475 9.4644 3.5269 14.5706 3.5269 1.14 0 2.1613-.6769 2.6125-1.7219.4513-1.045.2376-2.2562-.5462-3.0756-1.6863-1.8525-3.1113-4.0019-4.3463-6.1869-.1068-.2018-.2256-.4037-.3325-.6056 3.42-3.5981 5.4625-8.1462 5.4625-13.11 0-11.21-10.4381-20.3656-23.5362-20.8763.4869 1.805.7362 3.705.7362 5.6763v.0713c10.355.7956 17.1 8.0156 17.1 15.1287 0 3.325-1.3537 6.5194-3.8831 9.1675-1.6981 1.7813-2.0544 4.465-.8906 6.6262.1306.2375.2612.475.38.7007.2969.5343.6175 1.0687.9381 1.615-2.0187-.5344-4.0256-1.2706-5.9256-2.1375-.5106-.2257-1.0094-.4632-1.4963-.7125-1.1281-.57-2.4106-.7363-3.6456-.4988-1.4369.285-2.9331.4275-4.4887.4275-7.3269 0-13.0625-3.1468-16.245-7.3981-1.9.6412-3.895 1.1162-5.9375 1.4012 4.0256 6.935 12.4568 11.7088 22.1943 11.7088z" fill="#7f7f7f"/></g></svg>

<svg width="76" height="61" viewBox="0 0 76 61" fill="none" xmlns="http://www.w3.org/2000/svg">
<g clip-path="url(#clip0_1_460)">
<path d="M10.4732 36.7056C11.6369 34.5325 11.2807 31.8606 9.58256 30.0794C7.05319 27.4194 5.69944 24.225 5.69944 20.9C5.69944 13.3594 13.2757 5.7 24.6994 5.7C36.1232 5.7 43.6994 13.3594 43.6994 20.9C43.6994 28.4406 36.1232 36.1 24.6994 36.1C23.1438 36.1 21.6357 35.9456 20.2107 35.6725C18.9757 35.435 17.6932 35.6012 16.5651 36.1712C16.0782 36.4206 15.5794 36.6581 15.0688 36.8838C13.1688 37.7388 11.1619 38.4869 9.14319 39.0213C9.47569 38.475 9.78444 37.9406 10.0813 37.4062C10.2119 37.1806 10.3426 36.9431 10.4613 36.7056H10.4732ZM-0.000562756 20.9C-0.000562756 25.8638 2.04194 30.4119 5.45006 33.9981C5.34319 34.2 5.22444 34.4137 5.11756 34.6037C3.89444 36.7887 2.46944 38.9381 0.771312 40.7906C-0.0124378 41.6219 -0.214313 42.8331 0.225062 43.8662C0.688187 44.9231 1.70944 45.6 2.84944 45.6C7.95569 45.6 13.1213 44.0206 17.4201 42.0731C17.9901 41.8119 18.5601 41.5387 19.1063 41.2656C20.8994 41.6219 22.7757 41.8 24.6994 41.8C38.3438 41.8 49.3994 32.4425 49.3994 20.9C49.3994 9.3575 38.3438 0 24.6994 0C11.0551 0 -0.000562756 9.3575 -0.000562756 20.9ZM51.2994 57C53.2232 57 55.0876 56.81 56.8926 56.4656C57.4388 56.7388 58.0088 57.0119 58.5788 57.2731C62.8776 59.2206 68.0432 60.8 73.1494 60.8C74.2894 60.8 75.3107 60.1231 75.7619 59.0781C76.2132 58.0331 75.9995 56.8219 75.2157 56.0025C73.5294 54.15 72.1044 52.0006 70.8694 49.8156C70.7626 49.6138 70.6438 49.4119 70.5369 49.21C73.9569 45.6119 75.9994 41.0638 75.9994 36.1C75.9994 24.89 65.5613 15.7344 52.4632 15.2237C52.9501 17.0287 53.1994 18.9287 53.1994 20.9V20.9713C63.5544 21.7669 70.2994 28.9869 70.2994 36.1C70.2994 39.425 68.9457 42.6194 66.4163 45.2675C64.7182 47.0488 64.3619 49.7325 65.5257 51.8937C65.6563 52.1312 65.7869 52.3687 65.9057 52.5944C66.2026 53.1287 66.5232 53.6631 66.8438 54.2094C64.8251 53.675 62.8182 52.9388 60.9182 52.0719C60.4076 51.8462 59.9088 51.6087 59.4219 51.3594C58.2938 50.7894 57.0113 50.6231 55.7763 50.8606C54.3394 51.1456 52.8432 51.2881 51.2876 51.2881C43.9607 51.2881 38.2251 48.1413 35.0426 43.89C33.1426 44.5312 31.1476 45.0062 29.1051 45.2912C33.1307 52.2262 41.5619 57 51.2994 57Z" fill="#7F7F7F"/>
</g>
<defs>
<clipPath id="clip0_1_460">
<rect width="76" height="60.8" fill="white"/>
</clipPath>
</defs>
</svg>
